X:1
T:[ID 1-104a]
T:[ID 1-104a]
T:Bezeichnung standardisiert: Frantze Quadrat; Frantze Quadrat
T:Urheber unbekannt Datum in der hier transkribierten schriftlichen Quelle: vermutlich vor 1767
C:Urheber unbekannt
C:Datum in der hier transkribierten schriftlichen Quelle: vermutlich vor 1767
L:1/8
M:2/4
K:D
V:1 treble 
V:1
 d/f/a/f/ d/f/a/f/ | dcdA | d/f/a/f/ d/f/a/f/ | dc d2 :: A/c/e/c/ A/c/e/c/ | A/c/e/f/ g2 | %6
 ff/g/ ad | cB/c/ A2 | A/c/e/c/ A/c/e/c/ | A/c/e/f/ g2 | ff/g/ ad | ed/c/ d2 :: %12
"^O)" D/E/F/G/ A/G/F/E/ | D/E/F/G/ AA |"^O)" D/E/F/G/ A/G/F/E/ | D/E/F/G/ AA | ABcd | ef (3efg | %18
 ff/g/ ad | ed/c/ d2 :| %20

